X:1
T:Bach - Toccata and Fugue in F Major.
C:Johann Sebastian Bach
%%score { ( 1 4 6 7 ) | ( 2 5 8 9 ) | 3 }
L:1/8
Q:1/4=80
M:3/8
K:F
V:1 treble nm="Pipe Organ" snm="Org."
V:4 treble 
V:6 treble 
V:7 treble 
V:2 bass 
V:5 bass 
V:8 bass 
V:9 bass 
V:3 bass-8 
V:1
!f!"^J.S. Bach\nToccata and Fugue in F Major\n                BWV 540" F/E/F/C/A/F/ | %1
 G/F/G/C/B/G/ | AFf- | fPe3/2d/4e/4 | f/e/f/c/d/A/ | B/A/B/G/c/G/ | A/B/A/G/F/A/ | G/A/G/F/E/G/ | %8
 F/E/F/G/A/F/ | G/F/G/A/B/G/ | A/G/A/B/c/A/ | B/A/B/c/d/B/ | c/B/c/F/_e/c/ | d/c/d/G/f/d/ | %14
 _e/d/e/f/g/a/ | b/a/b/c'/a/b/ | c'/b/a/g/f/_e/ | d/f/g/f/_e/d/ | _e/d/e/c/f/A/ | B/A/B/c/A/B/ | %20
 c/B/c/d/B/c/ | d/c/d/_e/f/g/ | A/c/B/A/G/F/ | B/A/B/F/d/B/ | c/B/c/F/_e/c/ | dFB- | BPA3/2G/4A/4 | %27
 B/A/B/F/G/D/ | _E/D/E/C/F/C/ | D/C/D/F/B,/D/ | C/B,/C/_E/A,/C/ | B,/A,/B,/C/D/_E/ | F/G/A/B/c/A/ | %33
 d/c/d/_e/f/g/ | x c'2- | c'/a<bb/ | _e3 | d3- | d/B/ c2- | c/A/ B2- | B/G/ A2- | A/F/ G2- | %42
 G/=E/ F2- | F/D/ E2 | F/E/F/C/A/F/ | G/F/G/C/B/G/ | A/G/A/B/c/A/ | B/A/B/c/d/B/ | c/B/c/d/_e/c/ | %49
 d/c/d/=e/f/g/ | a/g/a/b/g/a/ | b/a/b/c'/a/b/ | c' z z | z3 | z3 | z3 | z3 | z3 | z3 | z3 | z3 | %61
 z3 | z3 | z3 | z3 | z3 | z3 | z3 | z3 | z3 | z3 | z3 | z3 | z3 | z3 | z3 | z3 | z3 | z3 | %79
[Q:1/4=75] z3[Q:1/4=70][Q:1/4=65][Q:1/4=60] |[Q:1/4=50] z c=B |[Q:1/4=40] c z[Q:1/4=30] z | %82
[Q:1/4=80] z3 | z3 | c/=B/c/G/e/c/ | d/c/d/G/f/d/ | ecc'- | c'P=b3/2a/4b/4 | c'/=b/c'/g/a/e/ | %89
 f/e/f/d/g/d/ | e/f/e/d/c/e/ | d/e/d/c/=B/d/ | c/=B/c/d/e/c/ | d/c/d/e/f/d/ | e/d/e/f/g/e/ | %95
 f/e/f/g/a/f/ | g/f/g/c/b/g/ | a/g/a/c/c'/a/ | b/a/b/g/c'/e/ | f/e/f/g/e/f/ | g/f/e/d/c/B/ | %101
 A/c/d/c/B/A/ | B/A/B/G/c/E/ | F/E/F/G/E/F/ | G/F/G/A/F/G/ | A/G/A/B/c/d/ | E/G/F/E/D/C/ | %107
 F/E/F/C/A/F/ | G/F/G/D/B/G/ | ACF- | FPE3/2D/4E/4 | F/E/F/C/D/x/ | x3 | x3 | x3 | x3 | %116
x/D/E/F/G/E/ | A/G/A/B/c/d/ | e/f/g/d/e/B/ | c/e/f/c/d/A/ | B2- B/G/ | A2- A/F/ | G2- G/C/ | %123
 F2- F/=B,/ | E2- E/A,/ | D2- D/G,/ | CG,C- | CP=B,3/2A,/4B,/4 | C/=B,/C/G,/E/C/ | D/C/D/G,/F/D/ | %130
 E/D/E/F/G/E/ | F/E/F/G/A/F/ | G/F/G/A/_B/G/ | A/G/A/=B/c/d/ | e/d/e/f/d/e/ | f/e/f/g/e/f/ | %136
 g z z | z3 | z3 | z3 | z3 | z3 | z3 | z3 | z3 | z3 | z3 | z3 | z3 | z3 | z3 | z3 | z3 | z3 | z3 | %155
 z3 | z3 | z3 | z3 | z3 | z3 | z3 | z3 | z3 | z3 | z3 | z3 | z3 | z !wedge!c!wedge!=B | %169
 z !wedge!_e!wedge!d | z !wedge!g!wedge!f | z !wedge!_e!wedge!d | z !wedge!f!wedge!_e | %173
 z !wedge![_Ad]!wedge!c | z !wedge![Gc]!wedge![G=B] | c2 z | z/ c/e/c/g/e/ | c'2 b | [fa][cf][ce] | %179
 [cf]2 z | z/ F/A/F/c/A/ | f2 _e | [Bd][FB][FA] | [FB]2 z | z/ B/d/B/f/d/ | b2 a | [eg][Be][Bd] | %187
 ^c2 z | z/ A/^c/A/e/c/ | a2 g | [df][Ad][A=c] | B2 z | z/ G/B/G/d/B/ | g2 f | [Be]2 [Ad] | %195
 _e^c[=Bd] | z !wedge!d!wedge!^c | z !wedge![df]!wedge![^ce] | z !wedge!a!wedge!g | %199
 z !wedge!f!wedge!e | z !wedge!g!wedge!f | z !wedge![Be]!wedge!d | z !wedge![Ad]!wedge![A^c] | %203
 d2 z | z/ _E/G/E/B/G/- | =e2 z | z/ F/A/F/c/A/- | ^f2 z | z/ G/B/G/d/B/ | g/f/g/d/_e/B/ | %210
 G/F/G/D/_E/B,/- | B2 z | [B^c]2 z | [Ae]2 z | [A^c]2 z | [EA]2 z | [fa][df][^ce] | [df][Ad][A^c] | %218
 d/^c/d/A/f/d/ | e/d/e/A/g/e/ | fAd- | dP^c3/2=B/4c/4 | dfa | Pg2- g/f/4g/4 | PTa2- a/g/4a/4 | %225
 b/a/g/f/e/d/ |[Q:1/4=70] ^c/d/Pd/c/4d/4[Q:1/4=80]e- | e/d/e/^c/f/c/ | d3- | db=c- | caB- | BgA- | %232
 AfG- | G/A/B/^c/d/e/ | F3- | F/E<FF/4G/8A/8 | B/A/G/F/E/D/ | P^C3 | z/ A/^c/A/e/c/ | a2 g | %240
 [df][Ad][A^c] | d2 z | z/ D/^F/D/A/F/ | d2 c | [G=B][dg][d^f] | g2 z | z/ G/=B/G/d/B/ | g2 f | %248
 [ce][Gc][G_B] | A2 z | z/ F/A/F/c/A/ | f2 e | [=Bd][F=B][FA] | ^G2 z | z/ E/^G/E/=B/G/ | e2 d | %256
 [Ac]A[E=G] | F2 z | z/ D/F/D/A/F/ | d2 c | [F=B]2 [EA] | _B^G[^FA] | z !wedge!A!wedge!^G | %263
 z !wedge!c!wedge!=B | z !wedge!e!wedge!d | z !wedge!c!wedge!=B | z !wedge!d!wedge!c | %267
 z !wedge![DF=B]!wedge!A | z !wedge![EA]!wedge![E^G] | [EA][ea][e^g] | [ea]2 =g | g e2- | e>dc/e/ | %273
 d/c<P=BA/ | A/^G/A/E/c/A/ | =B/A/B/E/d/B/ | c/=B/c/A/e/c/ | d/c/d/=B/f/d/ | e3- | e3- | %280
 e/d/e/c/f/c/ | d/c/d/=B/e/B/ | c/=B/c/A/d/A/ | =B/A/B/G/c/G/ | A/G/A/^F/=B/F/ | ^G3- | %286
 G/=B/^G/E/d/G/ | A>^GA- | A/c/f/e/d/c/ |"^(""^)" P=B2 z | z/ E/^G/E/=B/G/ | e2 d | [Ac]a[e^g] | %293
 a2 z | z/ A/^c/A/e/c/ | a2 g | [df][Ad][A^c] | d2 z | z/ D/^F/D/A/F/ | d2 c | [GB][dg][d^f] | %301
 g2 z | z/ G/=B/G/d/B/ | g2 f | [c_e][Gc][G=B] | c2 z | z/ c/_e/c/g/e/ | c'2 b | [_ea]2 [dg] | %309
 _a^f[=eg] | z !wedge!g!wedge!^f | z !wedge![gb]!wedge!a | %312
"^(8va. . . . . . . . . . . . . .)" z!8va(! !wedge![gd']!wedge![^fc'] | z !wedge!b!wedge!a!8va)! | %314
 z !wedge!c'!wedge!b | z !wedge![ea]!wedge!g | z !wedge![dg]!wedge![d^f] | [_eg]2 z | %318
 z/ _A/c/A/_e/c/- | [f=a]2 z | z/ B/d/B/f/d/- | [g=b]2 z | z/ c/_e/c/g/e/ | c'/b/c'/g/_a/_e/ | %324
 c/B/c/G/_A/_E/- | [c_e]2 z | [_e^f]2 z | [da]2 z | ^f2 z | d2 z | z g^f | g/^f/g/d/a/c/ | Bdg- | %333
 gP^f3/2e/4f/4 | g/^f/g/d/b/g/ | a/g/a/d/c'/a/ | bdg- | g^fa- | agb- | bac'- | c'/a/^f/d/f/a/ | %341
 b3- | b/a/b/g/c'/g/ | a/g/a/f/b/f/ | g/f/g/_e/a/e/ | f/_e/f/d/g/d/ | =e>g^f/g/ | a3- | %348
 a/g/^f/_e/d/c/ | g/=f/_e/d/c/B/ | _e/d/c/B/A/G/ | P^F3 | z/ D/^F/D/A/F/ | d2 c | [GB][dg][d^f] | %355
 g2 z | z/ G/=B/G/d/B/ | g2 f | [ce][gc'][g=b] | c'2 z | z/ C/=E/C/G/E/ | c2 B | [FA][cf][ce] | %363
 f2 z | z/ F/A/F/c/A/ | f2 _e | [Bd][fb][fa] | z !wedge![f_a]!wedge!g | z !wedge![_eg]!wedge![df] | %369
 z !wedge![df]!wedge![c_e] | z !wedge![c_e]!wedge![Bd] | x3 | _e3- | e3- | e_ed | %375
 z !wedge!c!wedge!B | z !wedge!g!wedge!f | z !wedge!_e!wedge!d | z !wedge!_e!wedge!d | %379
 z !wedge!c!wedge!B | z !wedge![FB]!wedge![FA] | [FB]2 z | z/ B/d/B/f/d/ | b3- | b3- | b3- | b3- | %387
 ba z | z/ F/A/F/c/A/ | f3- | f3- | f3- | f3- | fe/d/e- | ed/c/d- | dc/=B/c- | c=B/A/B | %397
 c/G/E/G/C/E/ | A/F/D/F/=B,/D/ | G/E/C/E/A,/C/ | F/D/=B,/D/G,/F/ | E/C/G/E/_B | A/F/c/A/f | %403
 e/c/g/e/_b | a/c'/f/a/d/f/ | g/b/e/g/c/e/ | f/a/d/f/=B/d/ | e/g/c/e/A/c/ | d/f/=B/d/G/B/ | %409
 E/G/C/E/A,/C/ | x3 | z3 |x/x/x/x/F | E/C/G/E/_B | A/F/c/A/f | e/c/g/e/_b | z !wedge!c'!wedge!b | %417
 z !wedge!a!wedge!g | z !wedge!f!wedge!e | z !wedge!d!wedge!c | z !wedge!B!wedge!A | %421
 z !wedge!G!wedge!F | z !wedge!F!wedge!E | [_DF]2 z | z/ _G/B/G/_d/B/- | [_e=g]2 z | %426
 z/ _A/c/A/_e/c/- | [f=a]2 z | z/ B/_d/B/f/d/ | b/_a/b/f/_g/_d/ | B/_A/B/F/_G/_D/- | [B_d]2 z | %432
 [_d=e]2 z | [cg]2 z | [ce]2 z | [Gc]2 z |[Q:1/4=70] z[Q:1/4=60] !wedge!f[Q:1/4=50].e | %437
[Q:1/4=30] [cf]2 z |][M:2/2][Q:1/4=120]"^Fuga" z8 | z8 | z8 | z8 | z8 | z8 | z8 | z8 | z8 | %447
"_(""_)" z8 | z8 | F8 | E4 _E4 | D4 B4- | B4 A4 | G8 | F8 | E2 FG A4- | A2 DC D2 E2 | %457
 F2 G2 A2 =B2 | d2 G2 c4- | c4 =B4 | c6 _B2 | A2 dc d2 D2 | C4 z2 F2- | F2 GA B2 c2 | d2 e2 f2 ed | %465
 c6 BA | B6 AG | A4 =B4 | c2 GF G2 A2 | B2 c2 d2 e2 | f2 c2 f4- | f4 e4 | d8 | G2 cB c2 d2 | %474
 e2 f2 g2 a2 | b8- | b4 a4- | a4 g4- | g2 fe f2 g2 | a2 =b2 c'2 ba | gfef Mf4- | f3 e/f/ e2 d2 | %482
 c2 _B4 AG | A2 B2 c2 d2 | _e4 d4- | d2 g2 c4- | c6 BA | G2 c4 f2- | f2 _e2 d4 | c4 z4 | z8 | z8 | %492
 z8 | f8 | e4 _e4 | d4 b4- | b4 a4 | g8- | g2 fg f2 _e2 | d2 c2 B4- | B6 cd | c2 B2 A2 G2 | %502
 F2 _E2 D=EDE | PE3 D/E/ PF3 E/F/ | PG3 F/G/ A2 =B2 | c2 f2 e2 ag | fedc e2 Pd2 | c6 ec | %508
 g2 df e2 ge | f2 ce d2 fd | =b2 g4 c'2- | c'2 =ba g2 f2 | efed cdef | gbac' bagb | cbag ac'ba | %515
 g8- | gfeg fedc | B8- | BAGB AGFA | G4 z2 Ac | d6 g2 | c4- cBcd | B8- | B4 A4- | AGFA GFED | %525
 E2 G2 c4- | c2 =B2 cgeg | a_bag f4- | fdef edcd | efga =bc'ab | c'4 =b4 | a8- | a=g^fa g=fed | %533
 ^cdec de f2- | fedf ed^c=B | A8- | AGFA GFED | ^C4 E4- | EFGE FGA=B | ^cdec defd | b8- | %541
 bagb agfa | gfeg =c2 z2 | z4 z de^f | gabg c'bag | ^fadc BAGB | _EGAB c4- | c_edc BAGB | A6 G2- | %549
 G4- G_eAc | d8- | d4 z4 | z8 | z8 | z8 | z8 | c6 _ec | g2 df _e2 ge | f2 c_e d2 fd | =b2 a4 c'2- | %560
 c'2 _b_a g2 f2 | _e4 =e2 f2 | g6 f2- | f_edf _e^c d2- | d6 ^c2 | d2 z2 z =c_BA | GA B2- BABc | %567
 dcd=e fefg | cdeg fedc | BABd cBAG | A2 =Bc d2 G2- | G2 A=B c4 | =B4 _B4 | A4 f4- | f4 e4 | d8- | %576
 ddef g=B c2- | c=BcA B4- | B=Bcd e^G A2- | A^GA^F MG3 A | A4 z4 | z4 z ede | A=B^ce d=c_BA | %583
 GABd cBAG | ^FGAc BAG=F | E^FGB AG^FE | DE^FA G=FED | ^c2 A4 d2- | d2 ^cB ABGA | ^FAGB AG^FE | %590
 D_E=F_A GFED | _E2 z2 z4 | z4 z2 g2 | fgac' bagf | =e2 fg a2 g2 | f8 | e4 _e4 | d4 b4- | b4 a4 | %599
 g8- | g2 fg a2 =b2 | c'2 g_b a2 c'a | b2 fa g2 bg | e2 c4 f2- | f2 ed c2 B2 | A2 d2 c2 B2 | %606
[Q:1/4=100] A4[Q:1/4=80] MG4[Q:1/4=60][Q:1/4=50] |[Q:1/4=30] !fermata![CF]8 |] %608
V:2
 z3 | z3 | F,/E,/F,/C,/A,/F,/ | G,/F,/G,/C,/B,/G,/ | A,F,F- | FPE3/2D/4E/4 | F/E/F/C/D/A,/ | %7
 B,/A,/B,/G,/C/G,/ | A,/B,/A,/G,/F,/A,/ | G,/A,/G,/F,/E,/G,/ | F,/E,/F,/G,/A,/F,/ | %11
 G,/F,/G,/A,/B,/G,/ | A,/G,/A,/B,/C/A,/ | B,/A,/B,/C/D/B,/ | C/B,/C/F,/_E/C/ | D/C/D/G,/F/D/ | %16
[K:treble] _E/D/E/F/G/A/ | B/A/B/c/A/B/ | c/B/A/G/F/_E/ | D/F/G/F/_E/D/ | _E/D/E/C/F/A,/ | %21
[K:bass] B,/A,/B,/C/A,/B,/ | C/B,/C/D/B,/C/ | D/C/D/_E/F/G/ | A,/C/B,/A,/G,/F,/ | %25
 B,/A,/B,/F,/D/B,/ | C/B,/C/G,/_E/C/ | DF,B,- | B,PA,3/2G,/4A,/4 | B,/A,/B,/F,/G,/D,/ | %30
 _E,/D,/E,/C,/F,/C,/ | D,/C,/D,/F,/B,,/D,/ | C,/B,,/C,/_E,/A,,/C,/ | B,,/A,,/B,,/C,/D,/_E,/ | %34
 F,/G,/A,/B,/C/A,/ |[K:treble] D/C/D/_E/F/G/ | x2 A | x2 G | _E2- E/C/ | D2- D/B,/ | %40
[K:bass] C2- C/F,/ | B,2- B,/=E,/ | A,2- A,/D,/ | B,>A,B, | A,C,F,- | F,PE,3/2D,/4E,/4 | %46
 F,/E,/F,/C,/A,/F,/ | G,/F,/G,/D,/B,/G,/ | A,/G,/A,/B,/C/A,/ | B,/A,/B,/C/D/B,/ | C/B,/C/D/_E/C/ | %51
[K:treble] D/C/D/=E/F/G/ | A/G/A/B/G/A/ | B/A/B/c/A/B/ | c z z | z3 | z3 | z3 | z3 | z3 | z3 | z3 | %62
 z3 | z3 | z3 | z3 | z3 | z3 | z3 | z3 | z3 | z3 | z3 | z3 | z3 | z3 | z3 | z3 | z3 | z3 | %80
[K:bass] z [E,G,][F,G,] | [E,G,] z z |!f! C,/=B,,/C,/G,,/E,/C,/ | D,/C,/D,/G,,/F,/D,/ | E,C,C- | %85
 CP=B,3/2A,/4B,/4 | C/=B,/C/G,/A,/E,/ | F,/E,/F,/D,/G,/D,/ | E,/F,/E,/D,/C,/E,/ | %89
 D,/E,/D,/C,/=B,,/D,/ | C,/=B,,/C,/D,/E,/C,/ | D,/C,/D,/E,/F,/D,/ | E,/D,/E,/F,/G,/E,/ | %93
 F,/E,/F,/G,/A,/F,/ | G,/F,/G,/C,/_B,/G,/ | A,/G,/A,/C,/C/A,/ | B,/A,/B,/C/D/E/ | %97
[K:treble] F/E/F/G/E/F/ | G/F/E/D/C/B,/ |[K:bass] A,/C/D/C/B,/A,/ | B,/A,/B,/G,/C/E,/ | %101
 F,/E,/F,/G,/E,/F,/ | G,/F,/G,/A,/F,/G,/ | A,/G,/A,/B,/C/D/ | E,/G,/F,/E,/D,/C,/ | %105
 F,/E,/F,/C,/A,/F,/ | G,/F,/G,/D,/B,/G,/ | A,C,F,- | F,PE,3/2D,/4E,/4 | F,/E,/F,/C,/D,/A,,/ | %110
 B,,/A,,/B,,/G,,/C,/G,,/ | x2 x/ A,/ | B,/A,/B,/G,/C/G,/ | A,/G,/A,/C/F,/A,/ | G,/F,/G,/B,/E,/G,/ | %115
 F,/E,/F,/G,/A,/B,/ | C/ x/ x2 | C/B,/C/G,/A,/F,/ | B,/A,/B,/F,/G,/E,/ | A,/G,/A,/F,/G,/E,/ | %120
 G,/F,/G,/D,/E,/B,/ | C>CD/A,/ | =B,>B,C/G,/ | A,>A,=B,/F,/ | G,>G,A,/E,/ | F,>F,G,/D,/ | E, z z | %127
 D,/C,/D,/G,,/F,/D,/ | E,/D,/E,/F,/G,/E,/ | F,/E,/F,/G,/A,/F,/ | G,/F,/G,/A,/_B,/G,/ | %131
 A,/G,/A,/=B,/C/D/ | x3 | x3 | x3 | z3 | z3 | z3 | z3 | z3 | z3 | z3 | z3 | z3 | z3 | z3 | z3 | %147
 z3 | z3 | z3 | z3 | z3 | z3 | z3 | z3 | z3 | z3 | z3 | z3 | z3 | z3 | z3 | z3 | z3 | z3 | z3 | %166
 z3 | z3 | z !wedge![_E,G,]!wedge![F,G,] | z !wedge![G,C]!wedge![G,D] | %170
 z !wedge![G,C]!wedge![G,D] | z !wedge![_E,G,]!wedge![G,_B,] | z !wedge![C,F,]!wedge![_E,G,] | %173
 z !wedge!F,!wedge!E, | z !wedge!G,!wedge!G, | G,2 z | z3 | z/ C/x/C/ x | z/ F,/A,/F,/C/C,/ | %179
 F,2 z | z3 | z/ F,/A,/F,/C/A,/ | z/ B,,/D,/B,,/F,/F,,/ | B,,2 z | z3 | z/ B,/x/B,/ x | %186
 z/ E,/G,/E,/B,/G,/ | A,2 z | z3 | z/ A,/^C/A,/E/C/ | z/ D,/F,/D,/A,/^F,/ | G,2 z | z3 | %193
 z/ G,/B,/G,/D/B,/ | z/ E/^C/E/A,/D/ | B,/_E/G,/B,/D,/F,/ | z !wedge![F,A,]!wedge![G,A,] | %197
 z !wedge![A,D]!wedge![A,E] | z !wedge![A,D]!wedge![A,E] | z !wedge![F,A,]!wedge![A,=C] | %200
 z !wedge![D,G,]!wedge![F,A,] | z !wedge!G,!wedge!D, | z !wedge!A,!wedge!A, | %203
 z/ B,,/D,/B,,/F,/D,/ | B,2 z | z/ C,/E,/C,/G,/E,/ | C2 z | z/ D,/^F,/D,/A,/F,/ | D2 z | _E2 z | %210
 _E2 z | G,/F,/G,/D,/_E,/B,,/- | [=E,G,]2 z | A,2 z | A,2 z | [E,A,]2 z | [D,F,][F,A,][G,A,] | %217
 [F,A,] z z | F,A,D- | DP^C3/2=B,/4C/4 |[K:treble] D/^C/D/A,/F/D/ | E/D/E/A,/G/E/ | FA,D- | D^CE- | %224
 EDF- | FEG- | G/F/G/E/A/E/ | F3- | F/E/F/D/G/D/ | E/D/E/=C/F/C/ | D/C/D/B,/E/B,/ | %231
[K:bass] C/B,/C/A,/D/A,/ | =B,>D^C/D/ | E3- | E/D/^C/_B,/A,/G,/ | D>^CD- | D/=C/B,/A,/G,/F,/ | %237
"^(""^)" PE,3 | z3 | z/ A,/^C/A,/E/C/ | z/ D,/F,/D,/A,/A,,/ | D,2 z | z3 | z/ D,/^F,/D,/A,/F,/ | %244
 z/ G,/=B,/G,/D/D,/ | G,2 z | z3 | z/ G,/=B,/G,/D/B,/ | z/ C,/E,/C,/G,/E,/ | F,2 z | z3 | %251
 z/ F,/A,/F,/C/A,/ | z/ =B,,/D,/B,,/F,/D,/ | E,2 z | z3 | z/ E,/^G,/E,/=B,/G,/ | %256
 z/ A,,/C,/A,,/E,/^C,/ | D,2 z | z3 | z/ D,/F,/D,/A,/F,/ | z/ =B,/^G,/B,/E,/A,/ | %261
 F,/_B,/D,/F,/A,,/C,/ | z !wedge![C,E,]!wedge![D,E,] | z !wedge![E,A,]!wedge![E,=B,] | %264
 z !wedge![E,A,]!wedge![E,=B,] | z !wedge![C,E,]!wedge![E,=G,] | z !wedge![A,,D,]!wedge![C,E,] | %267
 z !wedge!D,!wedge!A,, | z !wedge!E,!wedge!E, | [E,A,]2 z | A,/^G,/A,/C,/C/A,/ | %271
 =B,/A,/B,/D,/D/B,/ | C[K:treble]EA- | AP^G3/2^F/4G/4 | E x2 | PD2- D/C/4D/4 | PE2- E/D/4E/4 | %277
 F/E/D/C/[K:bass]=B,/A,/ | ^G,/A,/PA,/G,/4A,/4=B,- | =B,/A,/B,/^G,/C/G,/ | A,3- | A,F=G,- | %282
 G,EF,- | F,DE,- | E,CD,- | D,/E,/F,/=B,/E,/D/ | C3- | C/=B,<CC/4C/8D/8 | F/E/D/C/=B,/A,/ | %289
 P^G,2 z | z3 | z/ E,/^G,/E,/=B,/G,/ | z/ A,/C/A,/E/E,/ | A,2 z | z3 | z/ A,/^C/A,/E/C/ | %296
 z/ D,/F,/D,/A,/A,,/ | D,2 z | z3 | z/ D,/^F,/D,/A,/F,/ | z/ G,/B,/G,/D/D,/ | G,2 z | z3 | %303
 z/ G,/=B,/G,/D/B,/ | z/ C,/_E,/C,/G,/G,,/ | C,2 z | z3 |[K:treble] z/ C/_E/C/G/E/ | %308
 z/ A/^F/A/D/G/ | _E/_A/C/E/G,/B,/ | z !wedge![B,D]!wedge![CD] | z !wedge![DG]!wedge![DA] | %312
 z !wedge![DG]!wedge![DA] |[K:bass] z !wedge![B,D]!wedge![D=F] | z !wedge![G,C]!wedge![B,D] | %315
 z !wedge!C!wedge!G, | z !wedge!D!wedge!D | z/ _E,/G,/E,/B,/G,/ | _E2 z | z/ F,/=A,/F,/C/A,/ | %320
 F2 z | z/ G,/=B,/G,/D/B,/ | G2 z |[K:treble] [_E_A]2 z | [_E_A]2 z |[K:bass] C/B,/C/G,/_A,/_E,/- | %326
 [=A,C]2 z | [A,D]2 z | [A,D]2 z | [A,D]2 z | z3 |[K:treble] z [DG][D^F] | [DG]2 G | _E D2- | %334
 D>CB,/D/ | _E D2 | G/^F/G/D/B/G/ | A/G/A/D/c/A/ | B/A/B/G/d/B/ | c/B/c/A/_e/c/ | d3- | d3- | %342
 d/c/d/B/_e/B/ | c/B/c/A/d/A/ | B/A/B/G/c/G/ | A/G/A/F/B/F/ | G/F/G/=E/A/E/ | ^F3- | %348
 F/B/A/G/^F/A/ | DG/^F/G- | G/=F/_E/D/C/B,/ | A,3 | z3 |[K:bass] z/ D,/^F,/D,/A,/F,/ | %354
 z/ G,/B,/G,/D/D,/ | G,2 z | z3 | z/ G,/=B,/G,/D/B,/ | z/ C/_E/C/G/G,/ | C2 z | z3 | %361
 z/ C,/E,/C,/G,/E,/ | z/ F,/A,/F,/C/C,/ | F,2 z | z3 | z/ F,/A,/F,/C/A,/ | z/ B,/D/B,/F/_E/ | %367
 D/C/D/B,/_E/B,/ | C/B,/C/=A,/D/A,/ | B,/A,/B,/G,/C/G,/ | A,/G,/A,/F,/B,/F,/ | G,3- | G,3 | %373
 z/ F,/A,/F,/C/A,/ | z !wedge!C!wedge!D | z !wedge!_E!wedge!D | z !wedge!_E!wedge!F | %377
 z !wedge!C!wedge!D | z !wedge!B,!wedge!B, | z !wedge!C!wedge!_D | z !wedge!F,!wedge!F, | F,2 z | %382
 z3 | z3 |[K:treble] z/ C/=E/C/G/E/ | z/ G/E/G/C/E/ | G/E/C/E/A,/C/ | F2 z | z3 | z3 | %390
[K:bass] z/ G,/=B,/G,/D/B,/ | z/ D/=B,/D/G,/B,/ | F/D/=B,/D/E,/G,/ | C/G,/E,/G,/C,/E,/ | %394
 A,/F,/D,/F,/=B,,/D,/ | G,/E,/C,/E,/A,,/C,/ | F,/D,/=B,,/D,/G,,/F,/ | x2 G, | F,3 | E,3 | D,3 | %401
 C, x2 | CA,/F,/D/=B,/ |[K:treble] GE/C/G/E/ | cA/c/F/A/ | BG/B/E/G/ | AF/A/D/F/ | GE/G/C/E/ | %408
 F/E/D/C/[K:bass]=B,/A,/ | G,/F,/E,/D,/C,/=B,,/ | F,/A,/D,/F,/=B,,/F,/ | E,/C,/G,/E,/[G,_B,] | %412
 A,/F,/C/A,/ G, | G,E,/C,/G,/E,/ | CA,/F,/D/=B,/ |[K:treble] GE/C/G/E/ | z !wedge!A!wedge!G | %417
 z !wedge!A!wedge!B |[K:bass] z !wedge!FC- | C3- | C3- | C2 !wedge!=B, | z !wedge!G,!wedge!G, | %423
 [F,_A,]2 x | _D2 z | z/ _E,/G,/E,/B,/G,/ | _E2 z | z/ F,/=A,/F,/C/A,/ | F2 z | %429
[K:treble] [B,_D_G]2 z | [B,_D_G]2 z |[K:bass] B,/_A,/B,/F,/_G,/_D,/- | [=G,B,]2 z | [G,C]2 z | %434
 [G,C]2 z | [G,C]2 z | z !wedge!C.[G,C] | [A,C]2 z |][M:2/2]!f!!fff! F,8 | E,4 _E,4 | %440
 D,4"^(""^)" MB,4- | B,4 A,4 |"^(""^)" MG,8 | F,2 G,2 A,4- | A,2 D,C, D,2 E,2 | F,2 G,2 A,2 =B,2 | %446
 C2 G,2 C4- | C4 _B,4- | B,2 A,G, A,2 F,2 | D,2 G,,4 A,,=B,, | x2 G,F, G,2 A,2 | B,2 C2 x4 | %452
 D,2 E,2 F,2 A,,2 | B,,2 G,,2 C,2 B,,2 | A,,2 A,2 =B,2 G,2 | C2 G,2 E,2 C,2 | D,2 G,A, _B,2 C2- | %457
 C2 B,2 C2 D2 | G,2 C4 G,2 | A,2 DC D2 D,2 | G,2 A,=B, C2 G,2 | D4 B,A,B,G, | E,2 =F,G, A,G,A,F, | %463
 B,6 C2- | C2 B,2 A,2 z2 | A,2 B,C D4- | D2 CB, C4- | C2 F,E, F,2 G,2 | A,2 =B,2 C4 | %469
 _B,CB,A, G,F,G,A, | F,G,A,B, C4- | C=B,CB, C4- | C2 _B,C D4 | C6[K:treble] C=B, | C2 D2 E2 F2 | %475
 G2 F2 E2 FG | C2 DE F4- | F2 DC D2 E2 | F2 G2 A2 =B2 | c2 G2 c4- | c4 =B4 | %481
 c2 GA G2[K:bass] C,=B,, | C,2 D,2 E,2 F,2 | _E,2 B,2 A,2 G,2 | F,2 B,,A,, B,,2 C,2 | %485
 D,2 =E,2 F,2 G,2 | A,2 B,C D4- | D2 G,F, G,2 A,2 | B,2 C2 D2 =E2 | F2 C2 F4- | F4 _E4- | %491
 E4 D2 CB, | C2 F,=E, F,2 G,2 | A,2 B,2 C2 D2 | G,2 B,A, B,2 C2 |[K:treble] D2 =E2 F2 G2 | %496
 F2 ED C2 F2 | D4 E4 | A,2 D_E D2 C2 |[K:bass] B,2 A,2 B,2 D2 | G,8- | G,2 CD C2 B,2 | %502
 A,2 G,2 B,4- | B,4 C4- | C4 F,2 G,2 | A,2 =B,2 C4- | C4 =B,4 | C4 z4 | z8 | z8 | z8 | z8 | z8 | %513
 z8 | z8 | z8 | z8 | z8 | F,6 A,F, | C2 G,B, A,2 CA, | B,2 F,A, G,2 B,G, | E2 C4 F2- | %522
 F2 ED C2 B,2 | A,2 G,2 A,2 F,2 | G,2 A,2 =B,2 G,2 | C,=B,,C,E, D,C,B,,A,, | %526
 G,,2 z2 z2[K:treble] GE | F2 CE D2 FD | G,2 C2 =B,2 A,2 | G,2 =BA G2 F2 | E2 x2 EFDE | %531
 F2 E2 F2 D2 | E6 F2 | GFEG FED=C |[K:bass] =B,4 _B,2 A,G, | F,2 A,2 D2 F,2 | G,2 D,2 B,,2 G,,2 | %537
xA,G,B, A,G,F,E, | F,2 A,2 D2 z2 | z8 | G,2 D,F, E,2 G,E, | x2 ^C2 F4 | D2 =CB, A,2 G,2 | %543
 ^F,2 D,2 G,^F,G,A, | B,CDB, _EDCE | DCB,A, G,A,B,G, | CB,A,G, ^F,G,A,F, | G,6 B,G, | %548
 G,2 ^F,2 G,D,B,,D, | x4 A,2 CA, | C,A,,B,,C, B,,A,,G,,A,, | B,,C,D,_E, F,G,_A,F, | %552
 =B,2 G,2- G,B,x x | C,D,_E,C, F,E,D,C, | =B,,D,G,F, _E,D,C,E, | x8 | G,4 z4[K:treble] | %557
 z D G2- GD _E2- | EC F2- FC D2- | D2 x2 _EC_A,C |[K:bass] F,_A,DF =B,DG,B, | C_B,_A,C B,A,G,F, | %562
 =E,F,G,E, F,_E,D,C, | =B,,4 _B,,2 B,2 | F,2 ^G,,2 A,,4 |!fff! D,A,=B,^C D4- | D2 G,F, G,2 A,2 | %567
 D4 D2 E2 | F2 C2 F4- | F4 E4- | EEDC =B,CDB, | C4 G,4- | G,4- G,A,B,G, | C4- C=B,A,D | %574
 G,2 D2- DDC=B, | A,EDC =B,4- | B,=B,CD E4- | EDEC D4- | DG,A,=B, C4- | C=B,CA, B,4 | %580
 A,2 E,=G, ^F,2 A,F, | G,2 D,=F, E,2 G,E, | ^C2 A,4 D2- | D2 G,4 C2- | C2 ^F,2 G,2 B,2- | %585
 B,2 E,2 ^F,2 A,2- | A,G,A,C B,A,G,=F, | E,D,^C,E, D,=C,B,,A,, | G,,G,A,B, C4- | C8 | %590
[K:treble] B,CDF _EDCB, | CD_EG FEDC | B,CDF _EDCB, | CB,CA, B,CDB, | GCD=E FEFG | AGFE DC D2 | %596
 C2[K:bass] G,B, A,2 CA, | B,2 F,A, G,2 B,G, |xFGE FG A2 | F2 ED CDB,C | A,G,A,B, CB,_A,B, | %601
xCEG x4 | x2 x F DCDB, | G,2 x2 CDCA, | D2 z2 z4 | z DCB, A,G,F,G, | A,B,G,A, B,A, B,2 | %607
 !fermata!A,8 |] %608
V:3
 F,,3- | F,,3- | F,,3- | F,,3- | F,,3- | F,,3- | F,,3- | F,,3- | F,,3- | F,,3- | F,,3- | F,,3- | %12
 F,,3- | F,,3- | F,,3- | F,,3- | F,,3- | F,,3- | F,,3- | F,,3- | F,,3- | F,,3- | F,,3- | F,,3- | %24
 F,,3- | F,,3- | F,,3- | F,,3- | F,,3- | F,,3- | F,,3- | F,,3- | F,,3- | F,,3- | F,,3- | F,,3- | %36
 F,,3- | F,,3- | F,,3- | F,,3- | F,,3- | F,,3- | F,,3- | F,,3- | F,,3- | F,,3- | F,,3- | F,,3- | %48
 F,,3- | F,,3- | F,,3- | F,,3- | F,,3- | F,,3 |!fff! F,/E,/F,/C,/A,/F,/ | G,/F,/G,/C,/B,/G,/ | %56
 A,/G,/A,/F,/C/A,/ | B,/A,/B,/F,/D/B,/ | C/B,/C/A,/D/A,/ | B,/A,/B,/G,/C/G,/ | A,/G,/A,/F,/C/_E,/ | %61
 F,/_E,/F,/D,/B,/D,/ | _E,/D,/E,/C,/A,/C,/ | D,/C,/D,/B,,/F,/D,/ | B,/A,/B,/F,/G,/D,/ | %65
 =E,/D,/E,/C,/G,/E,/ | B,/A,/B,/F,/G,/D,/ | E,/D,/E,/C,/G,/E,/ | A,/G,/A,/E,/F,/C,/ | %69
 D,/C,/D,/=B,,/F,/D,/ | G,/F,/G,/D,/E,/=B,,/ | C,/=B,,/C,/A,,/E,/C,/ | F,/E,/F,/C,/D,/A,,/ | %73
 =B,,/A,,/B,,/G,,/D,/B,,/ | F,/E,/F,/C,/D,/A,,/ | =B,,/A,,/B,,/G,,/D,/B,,/ | %76
 _E,/D,/E,/=B,,/C,/G,,/ | A,,/G,,/A,,/^F,,/C,/A,,/ | _E,/D,/E,/=B,,/C,/G,,/ | %79
 A,,/G,,/A,,/^F,,/C,/A,,/ | G,,2 z | C,, z z | C,,3- | C,,3- | C,,3- | C,,3- | C,,3- | C,,3- | %88
 C,,3- | C,,3- | C,,3- | C,,3- | C,,3- | C,,3- | C,,3- | C,,3- | C,,3- | C,,3- | C,,3- | C,,3- | %100
 C,,3- | C,,3- | C,,3- | C,,3- | C,,3- | C,,3- | C,,3- | C,,3- | C,,3- | C,,3- | C,,3- | C,,3- | %112
 C,,3- | C,,3- | C,,3- | C,,3- | C,,3- | C,,3- | C,,3- | C,,3- | C,,3- | C,,3- | C,,3- | C,,3- | %124
 C,,3- | C,,3- | C,,3- | C,,3- | C,,3- | C,,3- | C,,3- | C,,3- | C,,3- | C,,3- | C,,3- | C,,3 | %136
!fff! C,/=B,,/C,/G,,/E,/C,/ | D,/C,/D,/G,,/F,/D,/ | E,/D,/E,/A,,/G,/E,/ | F,/E,/F,/C,/A,/F,/ | %140
 G,/F,/G,/E,/A,/E,/ | F,/E,/F,/D,/G,/D,/ | E,/D,/E,/C,/G,/_B,,/ | C,/B,,/C,/A,,/F,/A,,/ | %144
 B,,/A,,/B,,/G,,/E,/G,,/ | A,,/G,,/A,,/F,,/C,/A,,/ | F,/E,/F,/C,/D,/A,,/ | %147
 =B,,/A,,/B,,/G,,/D,/B,,/ | F,/E,/F,/C,/D,/A,,/ | =B,,/A,,/B,,/G,,/D,/B,,/ | E,/D,/E,/C,/G,/E,/ | %151
 _B,/A,/B,/F,/G,/D,/ | E,/D,/E,/C,/G,/E,/ | B,/A,/B,/G,/C/G,/ | A,/G,/A,/F,/C/A,/ | F/E/F/C/D/A,/ | %156
 =B,/A,/B,/G,/D/B,/ | E/D/E/=B,/C/G,/ | A,/G,/A,/F,/C/A,/ | D/C/D/A,/=B,/F,/ | %160
 G,/F,/G,/E,/=B,/G,/ | C/=B,/C/G,/A,/E,/ | F,/E,/F,/D,/A,/F,/ | =B,/A,/B,/F,/G,/D,/ | %164
 E,/D,/E,/C,/G,/E,/ | C/=B,/C/G,/A,/E,/ | ^F,/E,/F,/D,/A,/F,/ | C/=B,/C/G,/A,/^F,/ | G,2 z | %169
 G,,2 z | G,2 z | G,,2 z | G,2 z | G,,2 z | G,2 z | z/ C,/=E,/C,/G,/E,/ | C2 _B, | A,2 G, | F,2 z | %179
 z/ F,,/A,,/F,,/C,/A,,/ | F,2 _E, | D,2 C, | B,,2 z | z/ B,,/D,/B,,/F,/D,/ | B,2 A, | G,2 F, | %186
 E,2 z | z/ A,,/^C,/A,,/E,/C,/ | A,2 G, | F,2 E, | D,2 z | z/ G,,/C,/G,,/D,/B,,/ | G,2 =F, | %193
 E,2 D, | ^C,2 D, | G,,2 ^G,, | A,,2 z | A,2 z | A,,2 z | A,2 z | A,,2 z | A,2 z | A,,2 z | %203
 _A,,2 z | G,,2 z | B,,2 z | =A,,2 z | C,2 z | B,,2 z | G,,2 z | G,,2 z | G,,2 z | %212
 G,,/F,,/G,,/=E,,/B,,/G,,/ | ^C,/=B,,/C,/A,,/E,/C,/ | G,/F,/G,/D,/E,/=B,,/ | %215
 ^C,/=B,,/C,/A,,/E,/G,,/ | F,,2 A,, | D,F,,A,, | D,,F,,B,, | G,,E,,A,, | D,,2 z | z3 | %222
 D,/^C,/D,/A,,/F,/D,/ | E,/D,/E,/A,,/G,/F,/ | F,/E,/F,/B,,/A,/F,/ | G,/F,/G,/E,/B,/G,/ | A,3- | %227
 A,3- | A,/G,/A,/F,/B,/F,/ | G,/F,/G,/E,/A,/E,/ | F,/E,/F,/D,/G,/D,/ | E,/D,/E,/C,/F,/C,/ | %232
 D,/C,/D,/=B,,/E,/B,,/ | ^C,2 z | D,2 z | B,,2 z | G,,2 z | z/ A,,/^C,/A,,/E,/C,/ | A,2 G, | %239
 F,2 E, | D,2 z | z/ D,/^F,/D,/A,/F,/ | D2 =C | =B,2 A, | G,2 z | z/ G,,/=B,,/G,,/D,/B,,/ | %246
 G,2 =F, | E,2 D, | C,2 z | z/ F,,/A,,/F,,/C,/A,,/ | F,2 E, | D,2 C, | =B,,2 z | %253
 z/ E,/^G,/E,/=B,/G,/ | E2 D | C2 =B, | A,2 z | z/ D,/F,/D,/A,/F,/ | D2 =C | =B,2 A, | ^G,2 A, | %261
 D,2 ^D, | E,2 z | E,,2 z | E,2 z | E,,2 z | E,2 z | E,,2 z | E,2 z | A,,/^G,,/A,,/E,,/=B,,/E,,/ | %270
 C,A,,A,- | A, P^G,2 | A,/^G,/A,/C,/C/A,/ | =B,/A,/B,/D,/D/B,/ | CE,A,- | A,^G,=B,- | B,A,C- | %277
 C=B,D- | D/C/D/=B,/E/B,/ | C3- | C/=B,/C/A,/D/A,/ | =B,/A,/B,/=G,/C/G,/ | A,/G,/A,/F,/=B,/F,/ | %283
 G,/F,/G,/E,/A,/E,/ | ^F,>A,^G,/A,/ | =B,,>E,D,/E,/ | A,,2 z | F,,2 z | D,,2 z | %289
 z/ E,,/^G,,/E,,/=B,,/G,,/ | E,2 D, | C,2 =B,, | A,,2 z | z/ A,,/^C,/A,,/E,/C,/ | A,2 =G, | %295
 F,2 E, | D,2 z | z/ D,/^F,/D,/A,/F,/ | D2 =C | _B,2 A, | G,2 z | z/ G,,/=B,,/G,,/D,/B,,/ | %302
 G,2 =F, | _E,2 D, | C,2 z | z/ C,/_E,/C,/G,/E,/ | C2 _B, | A,2 G, | ^F,2 G, | C,2 ^C, | D,2 z | %311
 D,,2 z | D,2 z | D,,2 z | D,2 z | D,,2 z | D,2 z | _D,2 z | C,2 z | _E,2 z | D,2 z | F,2 z | %322
 _E,2 z | C,2 z | C,2 z | C,2 z | C,/B,,/C,/=A,,/_E,/C,/ | ^F,/=E,/F,/D,/A,/F,/ | %328
 C/B,/C/G,/A,/E,/ | ^F,/E,/F,/D,/A,/C,/ | B,,2 D, | G,B,,D, | G,/^F,/G,/D,/B,/G,/ | %333
 A,/G,/A,/D,/C/A,/ | B,D,G,- | G, P^F,2 | G,B,D | C2 ^F, | D2 G, | _ECA, | ^F,A,/G,/A,- | %341
 A,/G,/^F,/A,/D,/F,/ | G,3- | G,_E=F,- | F,D_E,- | E,CD,- | D,B,C,- | C,/D,/_E,,/^F,/G,,/A,/ | %348
 B,,3- | B,,A,,B,, | C,B,,C, | z/ D,/^F,/D,/A,/F,/ | D2 C | B,2 A, | G,2 z | %355
 z/ G,,/B,,/G,,/D,/B,,/ | G,2 =F, | _E,2 D, | C,2 z | z/ C,/_E,/C,/G,/E,/ | C2 _B, | A,2 G, | %362
 F,2 z | z/ F,,/A,,/F,,/C,/A,,/ | F,2 _E, | D,2 C, | B,,3- | B,,3- | B,,3- | B,,3- | B,,2 B,, | %371
 _E,2 D, | C,2 B,, | A,,2 G,, | F,,2 z | F,2 z | F,,2 z | F,2 z | F,,2 z | F,2 z | F,,2 z | %381
 z/ B,,/D,/B,,/F,/D,/ | B,2 A, | G,2 F, | =E,2 D, | C,2 B,, | A,,2 G,, | z/ F,,/A,,/F,,/C,/A,,/ | %388
 F,2 E, | D,2 C, | =B,,2 A,, | G,,2 F,, | E,,2 D,, | C,,3- | C,,3- | C,,3- | C,,3- | C,,3- | %398
 C,,3- | C,,3- | C,,3- | C,,3- | C,,3- | C,,3- | C,,3- | C,,3- | C,,3- | C,,3- | C,,3- | C,,3- | %410
 C,,3- | C,,3- | C,,3- | C,,3- | C,,3- | C,,3 | C,2 z | C,,2 z | C,2 z | C,,2 z | C,2 z | C,,2 z | %422
 C,2 z | _C,2 z | B,,2 z | _D,2 z | C,2 z | _E,2 z | _D,2 z | B,,2 z | B,,2 z | B,,2 z | %432
 A,,/_G,,/A,,/=G,,/_D,/B,,/ | =E,/=D,/E,/C,/G,/E,/ | B,/_A,/B,/F,/G,/D,/ | E,/D,/E,/C,/G,/B,,/ | %436
!fff! A,,B,,C, | F,,2 z |][M:2/2] z8 | z8 | z8 | z8 | z8 | z8 | z8 | z8 | z8 | z8 | z8 | z8 | z8 | %451
 z8 | z8 | z8 | z8 | C,8 | =B,,4 _B,,4 | A,,4 F,4- | F,4 E,4 | D,8 | C,8- | C,4 B,,4- | %462
 B,,4 A,,4- | A,,2 G,,F,, G,,2 A,,2 | B,,2 C,2 D,2 E,2 | F,2 C,2 F,4- | F,4 E,4- | E,4 D,4 | %468
 C,4 z2 C,,2 | G,,4 z2 G,,2 | D,2 A,,G,, A,,2 B,,2 | C,2 D,2 E,2 F,2 | G,2 A,2 B,4- | B,4 A,4- | %474
 A,2 G,A, G,2 F,2 | E,2 D,2 C,2 B,,2 | A,,2 G,,2 F,,2 E,,2 | D,,8- | D,,4 z4 | z2 E,D, E,2 F,2 | %480
 G,2 F,2 G,2 G,,2 | C,4 z4 | z8 | z8 | z8 | z8 | F,8 | E,4 _E,4 | D,4 B,4- | B,4 A,4 | G,8 | F,8- | %492
 F,4 _E,4- | E,4 D,4- | D,2 G,,F,, G,,2 A,,2 | B,,2 C,2 D,2 E,2 | F,2 C,2 F,4- | F,4 E,4 | D,8- | %499
 D,2 G,A, G,2 =F,2 | E,2 D,2 C,2 B,,2 | A,,8- | A,,6 B,,C, | B,,2 A,,2 G,,2 F,,2 | %504
 E,,2 C,,2 F,,4- | F,,2 D,,2 A,,2 F,,2 | G,,8 | C,,4 z4 | z8 | z8 | z8 | z8 | z8 | z8 | z8 | z8 | %516
 z8 | z8 | z8 | z8 | z8 | z8 | z8 | z8 | z8 | z8 | z8 | z8 | z8 | z8 | z8 | z8 | z8 | z8 | z8 | %535
 z8 | z8 | z8 | z8 | z8 | z8 | z8 | z8 | z8 | z8 | z8 | z8 | z8 | z8 | z8 | z8 | z8 | z8 | z8 | %554
 z8 | z8 | z8 | z8 | z8 | z8 | z8 | z8 | z8 | z8 | z8 | z8 | z8 | z8 | z8 | z8 | z8 | C,6 E,C, | %572
 G,2 D,F, E,2 G,E, | F,2 C,E, D,2 F,D, | =B,2 G,4 C2- | C2 =B,A, G,2 F,2 | E,4- E,D,E,C, | %577
 G,4- G,G,,=B,,G,, | C,4- C,=B,,C,A,, | E,4 E,,4 | A,,4 z4 | z8 | z8 | z8 | D,8 | ^C,4 =C,4 | %586
 B,,4 G,4- | G,4 F,4 | E,4 _E,4 | D,2 =E,2 ^F,2 D,2 | G,2 G,,2 G,4- | G,2 C,_E, D,2 F,D, | %592
 _E,2 B,,D, C,2 E,C, | A,2 F,4 B,2- | B,2 A,G, F,2 =E,2 | D,4 G,4 | C,4 z F,_E,F, | B,,4 z G,F,G, | %598
 C,2 E,C, F,2 D,F, | B,,2 G,,2 C,2 C,,2 | F,,8 | E,,4 _E,,4 | D,,4 B,,4- | B,,4 A,,4 | G,,8 | %605
 F,,2 G,,2 A,,2 B,,2 | C,4 C,,4 | !fermata!F,,8 |] %608
V:4
 x3 | x3 | x3 | x3 | x3 | x3 | x3 | x3 | x3 | x3 | x3 | x3 | x3 | x3 | x3 | x3 | x3 | x3 | x3 | %19
 x3 | x3 | x3 | x3 | x3 | x3 | x3 | x3 | x3 | x3 | x3 | x3 | x3 | x3 | x3 | a/b/c'/g/a/_e/ | %35
 f>cd- | d c2- | c B2 | G>GA/_E/ | F>FG/D/ | _E>DE | D>CD | C>B,C | x3 | x3 | x3 | x3 | x3 | x3 | %49
 x3 | x3 | x3 | x3 | x3 | x3 | x3 | x3 | x3 | x3 | x3 | x3 | x3 | x3 | x3 | x3 | x3 | x3 | x3 | %68
 x3 | x3 | x3 | x3 | x3 | x3 | x3 | x3 | x3 | x3 | x3 | x3 | z [EG][DG] | [EG] z z | x3 | x3 | x3 | %85
 x3 | x3 | x3 | x3 | x3 | x3 | x3 | x3 | x3 | x3 | x3 | x3 | x3 | x3 | x3 | x3 | x3 | x3 | x3 | %104
 x3 | x3 | x3 | x3 | x3 | x3 | x3 | x3 | x3 | x3 | x3 | x3 | x3 | x3 | x3 | x3 | x3 | x3 | x3 | %123
 x3 | x3 | x3 | x3 | x3 | x3 | x3 | x3 | x3 | E/D/E/F/D/E/ | F/E/F/G/E/F/ | G z z | x3 | x3 | x3 | %138
 x3 | x3 | x3 | x3 | x3 | x3 | x3 | x3 | x3 | x3 | x3 | x3 | x3 | x3 | x3 | x3 | x3 | x3 | x3 | %157
 x3 | x3 | x3 | x3 | x3 | x3 | x3 | x3 | x3 | x3 | x3 | z !wedge![_EG]!wedge![DG] | %169
 z !wedge![Gc]!wedge![G=B] | z !wedge![Gc]!wedge![G=B] | z !wedge![Gc]!wedge![Gd] | %172
 z !wedge![_Ac]!wedge![_EB] | z !wedge![DF]!wedge![_E=A] | z !wedge![C_E]!wedge![DF] | [C=EG]2 z | %176
 z3 | z ce | cAG | [FA]2 z | z3 | z FA | FDC | [B,D]2 z | z3 | z Bd | BGF | A2 z | z3 | z A^c | %190
 AF_E | G2 z | z3 | z GB | G2 F | G=EF | z !wedge![FA]!wedge![EA] | z !wedge!A!wedge!A | %198
 z !wedge![Ad]!wedge![A^c] | z !wedge![Ad]!wedge![Ae] | z !wedge![Bd]!wedge![Fc] | %201
 z !wedge![EG]!wedge![F=B] | z !wedge![DF]!wedge![EG] | _B2 z | x3 | c2 z | x3 | d2 z | x3 | x3 | %210
 x3 | G2 z | [=EG]2 z | [EG]2 z | E2 z | ^C2 z | dAA | x2 G | [FA] z z | x3 | x3 | x3 | x3 | x3 | %224
 x3 | x3 | x3 | x3 | x3 | x3 | x3 | x3 | x3 | x3 | x3 | x3 | x3 | x3 | z3 | z A^c | x2 G | A2 z | %242
 z3 | z D^F | x2 c | d2 z | z3 | z G=B | x3 | F2 z | z3 | z FA | x3 | E2 z | z3 | z E^G | x3 | %257
 D2 z | z3 | z DF | D2 C | F2 x | z !wedge![CE]!wedge![=B,E] | z !wedge![EA]!wedge![E^G] | %264
 z !wedge![EA]!wedge![E^G] | z !wedge![EA]!wedge![E=B] | z !wedge![FA]!wedge![CG] | %267
 z !wedge!=B,!wedge![C^F] | z !wedge![A,C]!wedge![=B,D] | C c=B | A2 e | d>c=B/d/ | c>=BA | x3 | %274
 x3 | x3 | x3 | x3 | x3 | x3 | x3 | x3 | x3 | x3 | x3 | x3 | x3 | x3 | x3 | x3 | z3 | z E^G | %292
 x2 d | e2 z | z3 | z A^c | x2 G | A2 z | z3 | z D^F | x2 c | d2 z | z3 | z G=B | x2 F | G2 z | %306
 z3 | z c_e | c2 B | c=AB | z !wedge![Bd]!wedge![Ad] | z !wedge!d!wedge![d^f] | %312
 z!8va(! !wedge!d!wedge!d | z !wedge!d!wedge!d!8va)! | z !wedge![_eg]!wedge![Bf] | %315
 z !wedge![Ac]!wedge![B=e] | z !wedge![GB]!wedge!A | [GB]2 z | x3 | c2 z | x3 | d2 z | x3 | x3 | %324
 x3 | [E_A]2 z | [=Ac]2 z | [Ac]2 z | [Ad]2 z | [^FA]2 z | z [Bd][Ad] | [Bd] x2 | x3 | x3 | x3 | %335
 x3 | x3 | x3 | x3 | x3 | x3 | x3 | x3 | x3 | x3 | x3 | x3 | x3 | x3 | x3 | x3 | x3 | z3 | z D^F | %354
 x2 c | d2 z | z3 | z G=B | x2 f | g2 z | z3 | z CE | x2 B | c2 z | z3 | z FA | x3 | %367
 z !wedge!B!wedge![B_e] | z !wedge!=A!wedge!A | z !wedge!G!wedge!G | z !wedge!F!wedge!F | d3- | %372
 d3 | c2 B | [Ac]2 B | z !wedge!A!wedge!F | z !wedge![Ac]!wedge![Bd] | z !wedge![FA]!wedge![FB] | %378
 z !wedge![_EB]!wedge![F_A] | z !wedge!=A!wedge!=G | z x !wedge!_E | [B,D]2 z | z3 | %383
 z/ G/B/G/d/B/ | g2 f | e3- | e3 | f2 z | z3 | z/ D/F/D/A/F/ | d2 c | =B3- | B3 | c3 | A2 G- | %395
 G2 F- | F2 G | G z x | x3 | x3 | x3 | x2 =G | x2 d | x2 g | x3 | x3 | x3 | x3 | x3 | x3 | x3 | %411
 x3 | x2 D | x2 G | x2 d | x2 g | z !wedge!f!wedge!e | z !wedge!f!wedge!g | z !wedge!A!wedge!G | %419
 z !wedge!B!wedge!A | z !wedge!G!wedge!F | z !wedge!E!wedge!D | z !wedge!C!wedge!C | x2 z | x3 | %425
 B2 z | x3 | c2 z | x3 | x3 | x3 | [D_G]2 z | [=GB]2 z | [GB]2 z | G2 z | E2 z | z !wedge!c.c | %437
 [FA]2 z |][M:2/2] z8 | z8 | z8 | z8 | z8 | C8 | =B,4 _B,4 | A,4"_(""_)" MF4- | F4 E4 | MD8 | C8- | %449
 C2 =B,C D4- | D2 x6 | x4 D2 =E2 | F2 C2 F4- | F4 E4- | E4 D4- | D4 C2 DE | F4 G4 | C4 z4 | %458
 z2 GF G2 E2 | F8- | F2 ED E2 x2 | x4 z2 G2- | G2 AB c4 | D6 x2 | x8 | x4 z4 | x4 z4 | F8 | %468
 E4 _E4 | D4 B4- | B4 A4 | G8- | G6 F2 | E2 FG F4 | E2 Bc B2 A2 | x8 | x8 | x8 | x8 | x8 | x8 | %481
 x6 F2 | E2 D2 C4- | C2 x6 | x2 c4 BA | B6 AG | F8 | G2 z2 z4 | z2 F_E F2 G2 | A2 B2 c2 BA | %490
 B2 c2 d2 _e2 | A2 GF B4- | B2 AG A2 B2 | c2 F4 B2- | B2 d4 c2- | c2 BA B2 c2 | d2 e2 fedc | %497
 =BAB^c dcBc | d2 F2 G2 A2 | B2 ^F2 G4- | G2 =F2 E4- | E4 F2 ED | C4 x4 | x8 | x4 z4 | x4 z4 | %506
 z2 GA G2 F2 | E2 D2!mf! C4- | C2 =B,2 CGEG | A_BAG F4- | FDEF EDCD | EFGA =BcdB | c2 G_B A2 cA | %513
 B2 FA G2 BG | e2 c4 f2- | f2 ed c2 B2 | A2 G2 A4- | AGFA GFED | C2 B,2 C2 F2- | F2 E2 F4- | %520
 F2 Ac B4- | BBAG A4 | G8- | GFEG FEDC | =B,2 C2 D2 B,2 | C4 z2 EC | G2 DF E2 x2 | x8 | %528
 =B2 G4 c2- | c2 x6 | x2 a4 ^g2 | adce dc=BA | c4 =B4 | _B4 A4 | G2 F2 G4- | GFEG FED=C | _B,8- | %537
 B, x7 | x8 | x8 | z agf gfed | e2 x6 | B4- BE^FG | ABcA B2 z2 | x4 z4 | x4 z4 | x4 z4 | x8 | %548
 x2 A,C B,2 DB, | C2 G,B, x4 | ^F2 D4 G2- | G2 =F_E D2 C2 | x6 CD | _EFGE _AGFA | GF_ED CDEC | %555
 F_EDC =B,CDB, | x8 | x8 | x8 | x2 =B2 c2 _e2 | d8- | d2 c4 _B2- | B_AGB A4- | A4 G3 ^G | %564
 A=G_BA GFEG | FEDE F4 | E4 _E4 | x4 B4- | B4 A4 | G8 | F8- | FFED EDCE | DEFD G4- | GFEG F2 A2 | %574
 dc=BA GFGE | F4- FDEF | G8- | G4- G2 F2 | E8- | E4- E2 D2 | ^C4 =C4 | =B,4 G4- | G4 F4 | E4 _E4 | %584
 D8 | z8 | z8 | z8 | z8 | x4 z4 | B8 | =A4 _A4 | G4 _e4- | e4 d4 | c8- | cedc =BcAB | cA_BG F4- | %597
 FGAc B2 d2 | c x7 | dABG e2 _e2- | e2 d2 c2 d2 | =e x3 c4 | z dBx x4 | x2 G2 F2 A2 | BAGF EFDE | %605
 x2 E2 F4- | F4 E4 | F8 |] %608
V:5
 x3 | x3 | x3 | x3 | x3 | x3 | x3 | x3 | x3 | x3 | x3 | x3 | x3 | x3 | x3 | x3 |[K:treble] x3 | %17
 x3 | x3 | x3 | x3 |[K:bass] x3 | x3 | x3 | x3 | x3 | x3 | x3 | x3 | x3 | x3 | x3 | x3 | x3 | x3 | %35
[K:treble] x3 | A/B/c/G/A/_E/ | F/G/A/F/G/D/ | x3 | x3 |[K:bass] x3 | x3 | x3 | G,2- G,/C,/ | %44
 F,2 z | x3 | x3 | x3 | x3 | x3 | x3 |[K:treble] x3 | x3 | x3 | x3 | x3 | x3 | x3 | x3 | x3 | x3 | %61
 x3 | x3 | x3 | x3 | x3 | x3 | x3 | x3 | x3 | x3 | x3 | x3 | x3 | x3 | x3 | x3 | x3 | x3 | x3 | %80
[K:bass] z C,D, | C, z z | x3 | x3 | x3 | x3 | x3 | x3 | x3 | x3 | x3 | x3 | x3 | x3 | x3 | x3 | %96
 x3 |[K:treble] x3 | x3 |[K:bass] x3 | x3 | x3 | x3 | x3 | x3 | x3 | x3 | x3 | x3 | x3 | x3 | %111
 A,,/G,,/A,,/C,/F,,/A,,/ | G,,/F,,/G,,/B,,/E,,/G,,/ | F,,/E,,/F,,/G,,/A,,/F,,/ | %114
 E,,/D,,/E,,/F,,/G,,/E,,/ | A,,/G,,/A,,/B,,/C,/D,/ | E,/F,/G,/A,/B,/G,/ | x3 | x3 | x3 | x2 E,- | %121
 E,/E,/ F,2- | F,/D,/ E,2- | E,/C,/ D,2- | D,/=B,,/ C,2- | C,/A,,/ =B,,2 | C,/=B,,/C,/G,,/E,/C,/ | %127
 x3 | x3 | x3 | x3 | x3 | x3 | x3 | x3 | x3 | x3 | x3 | x3 | x3 | x3 | x3 | x3 | x3 | x3 | x3 | %146
 x3 | x3 | x3 | x3 | x3 | x3 | x3 | x3 | x3 | x3 | x3 | x3 | x3 | x3 | x3 | x3 | x3 | x3 | x3 | %165
 x3 | x3 | x3 | z !wedge!C,!wedge!D, | z !wedge!_E,!wedge!F, | z !wedge!_E,!wedge!D, | %171
 z !wedge!C,!wedge!_B,, | z !wedge!_A,,!wedge!G,, | z !wedge!F,,!wedge!^F,, | %174
 z !wedge!G,,!wedge!G, | C,2 z | z3 | z3 | x3 | x3 | z3 | z3 | x3 | x3 | z3 | z3 | x3 | x3 | z3 | %189
 z3 | x3 | x3 | z3 | z3 | x3 | x3 | z !wedge!D,!wedge!E, | z !wedge!F,!wedge!G, | %198
 z !wedge!F,!wedge!E, | z !wedge!D,!wedge!=C, | z !wedge!B,,!wedge!A,, | z !wedge!G,,!wedge!^G,, | %202
 z !wedge!A,,!wedge!A, | x3 | x3 | x3 | x3 | x3 | x3 | [G,B,]2 z | [G,B,]2 z | x3 | B,,2 z | %213
 [A,,E,]2 z | [A,,E,]2 z | A,,2 z | A,,D,E, | D,/^C,/D,/A,,/E,/A,,/ | x3 | x3 |[K:treble] x3 | x3 | %222
 x3 | x3 | x3 | x3 | x3 | x3 | x3 | x3 | x3 |[K:bass] x3 | x3 | x3 | x3 | x3 | x3 | x3 | z3 | z3 | %240
 x3 | x3 | z3 | z3 | x3 | x3 | z3 | z3 | x3 | x3 | z3 | z3 | x3 | x3 | z3 | z3 | x3 | x3 | z3 | %259
 z3 | x3 | x3 | z !wedge!A,,!wedge!=B,, | z !wedge!C,!wedge!D, | z !wedge!C,!wedge!=B,, | %265
 z !wedge!A,,!wedge!=G,, | z !wedge!F,,!wedge!E,, | z !wedge!D,,!wedge!^D,, | %268
 z !wedge!E,,!wedge!E, | A,,2 z | x3 | x3 | x[K:treble] x2 | FDE | ACE | x3 | x3 | x2[K:bass] x | %278
 x3 | x3 | x3 | x3 | x3 | x3 | x3 | x3 | x3 | x3 | x3 | x3 | z3 | z3 | x3 | x3 | z3 | z3 | x3 | %297
 x3 | z3 | z3 | x3 | x3 | z3 | z3 | x3 | x3 | z3 |[K:treble] z3 | x3 | x3 | z !wedge!G,!wedge!A, | %311
 z !wedge!B,!wedge!C | z !wedge!B,!wedge!A, |[K:bass] z !wedge!G,!wedge!=F, | %314
 z !wedge!_E,!wedge!D, | z !wedge!C,!wedge!^C, | z !wedge!D,!wedge!D | x3 | x3 | x3 | x3 | x3 | %322
 x3 |[K:treble] C2 z | C2 z |[K:bass] x3 | E,2 z | D,2 z | D,2 z | D,2 z | z3 |[K:treble] z B,A, | %332
 G, z D | C>B,A,/C/ | B,>A,G, | C/B,<A,G,/ | G, z z | x3 | x3 | x3 | x3 | x3 | x3 | x3 | x3 | x3 | %346
 x3 | x3 | x3 | x3 | x3 | x3 | z3 |[K:bass] z3 | x3 | x3 | z3 | z3 | x3 | x3 | z3 | z3 | x3 | x3 | %364
 z3 | x3 | x3 | x3 | x3 | x3 | x3 | x3 | x3 | x3 | z !wedge!A,!wedge!B, | z !wedge!C!wedge!D | %376
 z !wedge!_E!wedge!D | z !wedge!C!wedge!B, | z !wedge!G,!wedge!F, | z !wedge!_E,!wedge!=E, | %380
 z !wedge!F,!wedge!F,, | B,,2 z | z3 | z3 |[K:treble] z3 | x3 | x3 | x3 | z3 | z3 |[K:bass] z3 | %391
 x3 | x3 | x3 | x3 | x3 | x3 | E,C,E,- | E,D,/C,/D,- | D,C,/=B,,/C,- | C,=B,,/A,,/B,, | %401
 C,E,/C,/G,/E,/ | x3 |[K:treble] x3 | x3 | x3 | x3 | x3 | x2[K:bass] x | x3 | %410
 A,,/G,,/F,,/E,,/D,,/=B,,/ | x2 E, | C,A,,/F,,/D,/=B,,/ | x3 | x3 |[K:treble] x3 | x3 | %417
 z !wedge!F!wedge!E |[K:bass] x3 | z !wedge!E,!wedge!F, | z !wedge!G,!wedge!A, | %421
 z !wedge!B,!wedge!_A, | z !wedge!C,!wedge!C,, | z/ _D,/F,/D,/_A,/F,/ | x3 | x3 | x3 | x3 | x3 | %429
[K:treble] x3 | x3 |[K:bass] x3 | D,2 z | C,2 z | C,2 z | C,2 z | z !wedge![F,A,].C, | F,2 z |] %438
[M:2/2] x8 | x8 | x8 | x8 | x8 | x8 | x8 | x8 | x8 | x8 | x8 | x8 | C,6 C,2 | G,6 F,E, | x8 | x8 | %454
 x8 | x8 | x8 | x8 | x8 | x8 | x6 E,2 | ^F,2 G,A, x4 | x8 | x6 A,2- | A,2 G,2 F,2 G,2 | x8 | x8 | %467
 x8 | x8 | x8 | x8 | x8 | x8 | x6[K:treble] x2 | x8 | G2 z2 z4 | C8 | =B,4 _B,4 | A,4 F4- | F4 E4 | %480
 D8 | C6[K:bass] x2 | x8 | x2 D,2 C,2 B,,2 | A,,2 x6 | x8 | x8 | x8 | x8 | x8 | x8 | x8 | x8 | x8 | %494
 x8 |[K:treble] x8 | x8 | x8 | x8 |[K:bass] x8 | x8 | x8 | x4 F,4 | G,4 A,4 | G,2 F,E, x4 | x8 | %506
 x8 | x8 | x8 | x8 | x8 | x8 | x8 | x8 | x8 | x8 | x8 | x8 | x8 | x8 | x8 | x8 | x8 | x8 | x8 | %525
 x8 | x6[K:treble] D2 | F,2 z2 z2 D2 | x8 | x2 z2 z2 ^G,2 | A,=B,CD x4 | x8 | x8 | x8 | %534
[K:bass] x8 | x8 | x8 | A,,2 E,2 ^C,2 A,,2 | D,6 F,D, | A,2 E,G, F,2 A,F, | x8 | ^C2 A,4 D2- | x8 | %543
 x8 | x8 | x8 | x8 | B,,2 D,2 G,4- | D2 x6 | _E,=F,E,D, C,4- | x8 | x8 | G,F,_E,D, E,F,E,D, | x8 | %554
 x8 | _A,,C,D,_E, F,4- | F,F,_E,D, E,G,[K:treble] C2- | C3 =B, C3 _B, | =A,3 A, B,3 _A, | %559
 G,B,DF x4 |[K:bass] x8 | x8 | x8 | x8 | x8 | x8 | x8 | B,2 C2 x4 | x8 | x8 | x8 | x8 | x8 | x8 | %574
 x8 | x8 | x8 | x8 | x8 | x8 | x8 | x8 | x8 | x8 | x8 | x8 | x8 | x8 | x8 | x8 |[K:treble] x8 | %591
 x8 | x8 | x8 | x8 | x8 | x2[K:bass] x6 | x8 | E2 C4 F2- | x8 | x8 | G,2 z2 z F,=A,C | F2 z2 z4 | %603
 z C,E,G, x4 | x8 | x8 | x8 | x8 |] %608
V:6
 x3 | x3 | x3 | x3 | x3 | x3 | x3 | x3 | x3 | x3 | x3 | x3 | x3 | x3 | x3 | x3 | x3 | x3 | x3 | %19
 x3 | x3 | x3 | x3 | x3 | x3 | x3 | x3 | x3 | x3 | x3 | x3 | x3 | x3 | x3 | x3 | x3 | x3 | x3 | %38
 x3 | x3 | x3 | x3 | x3 | x3 | x3 | x3 | x3 | x3 | x3 | x3 | x3 | x3 | x3 | x3 | x3 | x3 | x3 | %57
 x3 | x3 | x3 | x3 | x3 | x3 | x3 | x3 | x3 | x3 | x3 | x3 | x3 | x3 | x3 | x3 | x3 | x3 | x3 | %76
 x3 | x3 | x3 | x3 | x3 | x3 | x3 | x3 | x3 | x3 | x3 | x3 | x3 | x3 | x3 | x3 | x3 | x3 | x3 | %95
 x3 | x3 | x3 | x3 | x3 | x3 | x3 | x3 | x3 | x3 | x3 | x3 | x3 | x3 | x3 | x3 | x3 | x3 | x3 | %114
 x3 | x3 | x3 | x3 | x3 | x3 | x3 | x3 | x3 | x3 | x3 | x3 | x3 | x3 | x3 | x3 | x3 | x3 | x3 | %133
 x3 | x3 | x3 | x3 | x3 | x3 | x3 | x3 | x3 | x3 | x3 | x3 | x3 | x3 | x3 | x3 | x3 | x3 | x3 | %152
 x3 | x3 | x3 | x3 | x3 | x3 | x3 | x3 | x3 | x3 | x3 | x3 | x3 | x3 | x3 | x3 | x3 | x3 | x3 | %171
 x3 | x3 | x3 | x3 | x3 | x3 | x E/x/G/E/ | x2 B | x2 z | x3 | x3 | x2 _E | x2 z | x3 | %185
 x D/x/F/D/ | x3 | E2 z | x3 | x3 | x3 | D2 z | x3 | x3 | x3 | B2 z | x3 | x3 | x3 | x3 | x3 | x3 | %202
 x3 | F2 x | x3 | G2 x | x3 | A2 x | x3 | x3 | x3 | [B,_E]2 x | x3 | x3 | x3 | x3 | x3 | AFE | %218
 D x2 | x3 | x3 | x3 | x3 | x3 | x3 | x3 | x3 | x3 | x3 | x3 | x3 | x3 | x3 | x3 | x3 | x3 | x3 | %237
 x3 | x3 | x3 | AFE | [D^F]2 z | x3 | x3 | D=BA | [G=B]2 z | x3 | x3 | GED | C2 z | x3 | x3 | FDC | %253
 =B,2 z | x3 | x3 | E[CE]_B, | A,2 z | x3 | x3 | x3 | D=B,C | x3 | x3 | x3 | x3 | x3 | x3 | x3 | %269
 x3 | x3 | x3 | x3 | x3 | x3 | x3 | x3 | x3 | x3 | x3 | x3 | x3 | x3 | x3 | x3 | x3 | x3 | x3 | %288
 x3 | x3 | x3 | x3 | E[ce]=B | [A^c]2 z | x3 | x3 | AFE | [D^F]2 z | x3 | x3 | DBA | [G=B]2 z | %302
 x3 | x3 | G_ED | [C_E]2 z | x3 | x3 | x3 | _e2 x | x3 | x3 | x!8va(! x2 | x gd!8va)! | x3 | x3 | %316
 x2 c | x3 | x3 | x3 | x3 | x3 | x3 | x3 | x3 | x3 | x3 | x3 | x3 | x3 | x3 | x3 | x3 | x3 | x3 | %335
 x3 | x3 | x3 | x3 | x3 | x3 | x3 | x3 | x3 | x3 | x3 | x3 | x3 | x3 | x3 | x3 | x3 | x3 | x3 | %354
 DBA | [GB]2 z | x3 | x3 | G_ed | [c_e]2 z | x3 | x3 | CAG | [FA]2 z | x3 | x3 | Fdc | x3 | x3 | %369
 x3 | x3 | z/ _E/G/E/B/G/ | z/ C/_E/C/G/E/ | F2 G | F2 F | x !wedge!FF | x3 | x3 | x3 | %379
 x !wedge!_G=G | x !wedge!C!wedge!C | x3 | x3 | x3 | x3 | c3- | c3- | c2 z | x3 | x3 | x3 | G3- | %392
 G3- | G3 | F3 | E3 | D3 | C z x | x3 | x3 | x3 | x2 E | x2 =B | x2 e | x3 | x3 | x3 | x3 | x3 | %409
 x3 | x3 | x3 | x2 =B, | x2 E | x2 =B | x2 e | c3- | c3- | c2 !wedge!B | x3 | x3 | x3 | %422
 x !wedge!C!wedge!_B, | x3 | x3 | x3 | x3 | x3 | x3 | x3 | x3 | x3 | x3 | x3 | x3 | x3 | %436
 x !wedge!A.B | x3 |][M:2/2] x8 | x8 | x8 | x8 | x8 | x8 | x8 | x8 | x8 | x8 | x8 | x8 | x8 | x8 | %452
 x8 | x8 | x8 | x8 | x8 | x8 | x8 | x8 | x8 | x8 | x8 | x8 | x8 | x8 | x8 | x8 | x8 | x8 | x8 | %471
 x8 | x8 | x8 | x8 | x8 | x8 | x8 | x8 | x8 | x8 | x8 | x8 | x8 | x8 | x8 | x8 | x8 | x8 | x8 | %490
 x8 | x8 | x8 | x8 | x8 | x8 | x8 | x8 | x8 | x8 | x8 | x8 | x8 | x8 | x8 | x8 | x8 | x8 | x8 | %509
 x8 | x8 | x8 | x8 | x8 | x8 | x8 | x8 | x8 | x8 | x8 | x8 | x8 | x8 | x8 | x8 | x8 | x8 | x8 | %528
 x8 | x8 | x8 | x8 | x8 | x8 | x8 | x8 | x8 | x8 | x8 | x8 | x8 | x8 | x8 | x8 | x8 | x8 | x8 | %547
 x8 | x8 | x8 | x8 | x8 | x8 | x8 | x8 | x8 | x8 | x8 | x8 | x8 | x8 | x8 | x8 | x8 | x8 | x8 | %566
 x8 | x8 | x8 | x8 | x8 | x8 | x8 | x8 | x8 | x8 | x8 | x8 | x8 | x8 | x8 | x8 | x8 | x8 | x8 | %585
 x8 | x8 | x8 | x8 | x8 | x8 | x8 | x8 | x8 | x8 | x8 | x8 | x8 | x8 | x8 | x8 | x8 | x8 | x8 | %604
 x8 | F2 x2 z2 D2 | C4 C4 | x8 |] %608
V:7
 x3 | x3 | x3 | x3 | x3 | x3 | x3 | x3 | x3 | x3 | x3 | x3 | x3 | x3 | x3 | x3 | x3 | x3 | x3 | %19
 x3 | x3 | x3 | x3 | x3 | x3 | x3 | x3 | x3 | x3 | x3 | x3 | x3 | x3 | x3 | x3 | x3 | x3 | x3 | %38
 x3 | x3 | x3 | x3 | x3 | x3 | x3 | x3 | x3 | x3 | x3 | x3 | x3 | x3 | x3 | x3 | x3 | x3 | x3 | %57
 x3 | x3 | x3 | x3 | x3 | x3 | x3 | x3 | x3 | x3 | x3 | x3 | x3 | x3 | x3 | x3 | x3 | x3 | x3 | %76
 x3 | x3 | x3 | x3 | x3 | x3 | x3 | x3 | x3 | x3 | x3 | x3 | x3 | x3 | x3 | x3 | x3 | x3 | x3 | %95
 x3 | x3 | x3 | x3 | x3 | x3 | x3 | x3 | x3 | x3 | x3 | x3 | x3 | x3 | x3 | x3 | x3 | x3 | x3 | %114
 x3 | x3 | x3 | x3 | x3 | x3 | x3 | x3 | x3 | x3 | x3 | x3 | x3 | x3 | x3 | x3 | x3 | x3 | x3 | %133
 x3 | x3 | x3 | x3 | x3 | x3 | x3 | x3 | x3 | x3 | x3 | x3 | x3 | x3 | x3 | x3 | x3 | x3 | x3 | %152
 x3 | x3 | x3 | x3 | x3 | x3 | x3 | x3 | x3 | x3 | x3 | x3 | x3 | x3 | x3 | x3 | x3 | x3 | x3 | %171
 x3 | x3 | x3 | x3 | x3 | x3 | x3 | x3 | x3 | x3 | x3 | x3 | x3 | x3 | x3 | x3 | x3 | x3 | x3 | %190
 x3 | x3 | x3 | x3 | x3 | x3 | x3 | x3 | x3 | x3 | x3 | x3 | x3 | x3 | x3 | x3 | x3 | x3 | x3 | %209
 x3 | x3 | x3 | x3 | x3 | x3 | x3 | x3 | x3 | x3 | x3 | x3 | x3 | x3 | x3 | x3 | x3 | x3 | x3 | %228
 x3 | x3 | x3 | x3 | x3 | x3 | x3 | x3 | x3 | x3 | x3 | x3 | x3 | x3 | x3 | x3 | x3 | x3 | x3 | %247
 x3 | x3 | x3 | x3 | x3 | x3 | x3 | x3 | x3 | x3 | x3 | x3 | x3 | x3 | x3 | x3 | x3 | x3 | x3 | %266
 x3 | x3 | x3 | x3 | x3 | x3 | x3 | x3 | x3 | x3 | x3 | x3 | x3 | x3 | x3 | x3 | x3 | x3 | x3 | %285
 x3 | x3 | x3 | x3 | x3 | x3 | x3 | x3 | x3 | x3 | x3 | x3 | x3 | x3 | x3 | x3 | x3 | x3 | x3 | %304
 x3 | x3 | x3 | x3 | x3 | x3 | x3 | x3 | x!8va(! x2 | x3!8va)! | x3 | x3 | x3 | x3 | x3 | x3 | x3 | %321
 x3 | x3 | x3 | x3 | x3 | x3 | x3 | x3 | x3 | x3 | x3 | x3 | x3 | x3 | x3 | x3 | x3 | x3 | x3 | %340
 x3 | x3 | x3 | x3 | x3 | x3 | x3 | x3 | x3 | x3 | x3 | x3 | x3 | x3 | x3 | x3 | x3 | x3 | x3 | %359
 x3 | x3 | x3 | x3 | x3 | x3 | x3 | x3 | x3 | x3 | x3 | x3 | x3 | x3 | x3 | x3 | x3 | x3 | x3 | %378
 x3 | x3 | x3 | x3 | x3 | x3 | x3 | x3 | x3 | x3 | x3 | x3 | x3 | x3 | x3 | x3 | x3 | x3 | x3 | %397
 x3 | x3 | x3 | x3 | x2 C | x2 G | x2 c | x3 | x3 | x3 | x3 | x3 | x3 | x3 | x3 | x3 | x2 C | %414
 x2 G | x2 c | x3 | x3 | x3 | x3 | x3 | x3 | x3 | x3 | x3 | x3 | x3 | x3 | x3 | x3 | x3 | x3 | x3 | %433
 x3 | x3 | x3 | x2 .G | x3 |][M:2/2] x8 | x8 | x8 | x8 | x8 | x8 | x8 | x8 | x8 | x8 | x8 | x8 | %450
 x8 | x8 | x8 | x8 | x8 | x8 | x8 | x8 | x8 | x8 | x8 | x8 | x8 | x8 | x8 | x8 | x8 | x8 | x8 | %469
 x8 | x8 | x8 | x8 | x8 | x8 | x8 | x8 | x8 | x8 | x8 | x8 | x8 | x8 | x8 | x8 | x8 | x8 | x8 | %488
 x8 | x8 | x8 | x8 | x8 | x8 | x8 | x8 | x8 | x8 | x8 | x8 | x8 | x8 | x8 | x8 | x8 | x8 | x8 | %507
 x8 | x8 | x8 | x8 | x8 | x8 | x8 | x8 | x8 | x8 | x8 | x8 | x8 | x8 | x8 | x8 | x8 | x8 | x8 | %526
 x8 | x8 | x8 | x8 | x8 | x8 | x8 | x8 | x8 | x8 | x8 | x8 | x8 | x8 | x8 | x8 | x8 | x8 | x8 | %545
 x8 | x8 | x8 | x8 | x8 | x8 | x8 | x8 | x8 | x8 | x8 | x8 | x8 | x8 | x8 | x8 | x8 | x8 | x8 | %564
 x8 | x8 | x8 | x8 | x8 | x8 | x8 | x8 | x8 | x8 | x8 | x8 | x8 | x8 | x8 | x8 | x8 | x8 | x8 | %583
 x8 | x8 | x8 | x8 | x8 | x8 | x8 | x8 | x8 | x8 | x8 | x8 | x8 | x8 | x8 | x8 | x8 | x8 | x8 | %602
 x8 | x8 | x8 | x8 | x8 | x8 |] %608
V:8
 x3 | x3 | x3 | x3 | x3 | x3 | x3 | x3 | x3 | x3 | x3 | x3 | x3 | x3 | x3 | x3 |[K:treble] x3 | %17
 x3 | x3 | x3 | x3 |[K:bass] x3 | x3 | x3 | x3 | x3 | x3 | x3 | x3 | x3 | x3 | x3 | x3 | x3 | x3 | %35
[K:treble] x3 | x3 | x3 | x3 | x3 |[K:bass] x3 | x3 | x3 | x3 | x3 | x3 | x3 | x3 | x3 | x3 | x3 | %51
[K:treble] x3 | x3 | x3 | x3 | x3 | x3 | x3 | x3 | x3 | x3 | x3 | x3 | x3 | x3 | x3 | x3 | x3 | %68
 x3 | x3 | x3 | x3 | x3 | x3 | x3 | x3 | x3 | x3 | x3 | x3 |[K:bass] x3 | x3 | x3 | x3 | x3 | x3 | %86
 x3 | x3 | x3 | x3 | x3 | x3 | x3 | x3 | x3 | x3 | x3 |[K:treble] x3 | x3 |[K:bass] x3 | x3 | x3 | %102
 x3 | x3 | x3 | x3 | x3 | x3 | x3 | x3 | x3 | x3 | x3 | x3 | x3 | x3 | x3 | x3 | x3 | x3 | x3 | %121
 x3 | x3 | x3 | x3 | x3 | x3 | x3 | x3 | x3 | x3 | x3 | x3 | x3 | x3 | x3 | x3 | x3 | x3 | x3 | %140
 x3 | x3 | x3 | x3 | x3 | x3 | x3 | x3 | x3 | x3 | x3 | x3 | x3 | x3 | x3 | x3 | x3 | x3 | x3 | %159
 x3 | x3 | x3 | x3 | x3 | x3 | x3 | x3 | x3 | x3 | x3 | x3 | x3 | x3 | x3 | x3 | x3 | x3 | x3 | %178
 x3 | x3 | x3 | x3 | x3 | x3 | x3 | x3 | x3 | x3 | x3 | x3 | x3 | x3 | x3 | x3 | x3 | x3 | x3 | %197
 x3 | x3 | x3 | x3 | x3 | x3 | x3 | x3 | x3 | x3 | x3 | x3 | x3 | x3 | x3 | x3 | x3 | x3 | x3 | %216
 x3 | x3 | x3 | x3 |[K:treble] x3 | x3 | x3 | x3 | x3 | x3 | x3 | x3 | x3 | x3 | x3 |[K:bass] x3 | %232
 x3 | x3 | x3 | x3 | x3 | x3 | x3 | x3 | x3 | x3 | x3 | x3 | x3 | x3 | x3 | x3 | x3 | x3 | x3 | %251
 x3 | x3 | x3 | x3 | x3 | x3 | x3 | x3 | x3 | x3 | x3 | x3 | x3 | x3 | x3 | x3 | x3 | x3 | x3 | %270
 x3 | x3 | x[K:treble] x2 | x3 | x3 | x3 | x3 | x2[K:bass] x | x3 | x3 | x3 | x3 | x3 | x3 | x3 | %285
 x3 | x3 | x3 | x3 | x3 | x3 | x3 | x3 | x3 | x3 | x3 | x3 | x3 | x3 | x3 | x3 | x3 | x3 | x3 | %304
 x3 | x3 | x3 |[K:treble] x3 | x3 | x3 | x3 | x3 | x3 |[K:bass] x3 | x3 | x3 | x3 | x3 | x3 | x3 | %320
 x3 | x3 | x3 |[K:treble] x3 | x3 |[K:bass] x3 | x3 | x3 | x3 | x3 | x3 |[K:treble] x3 | x3 | x3 | %334
 x3 | x3 | x3 | x3 | x3 | x3 | x3 | x3 | x3 | x3 | x3 | x3 | x3 | x3 | x3 | x3 | x3 | x3 | x3 | %353
[K:bass] x3 | x3 | x3 | x3 | x3 | x3 | x3 | x3 | x3 | x3 | x3 | x3 | x3 | x3 | x3 | x3 | x3 | x3 | %371
 x3 | x3 | x3 | x3 | x3 | x3 | x3 | x3 | x3 | x3 | x3 | x3 | x3 |[K:treble] x3 | x3 | x3 | x3 | %388
 x3 | x3 |[K:bass] x3 | x3 | x3 | x3 | x3 | x3 | x3 | x3 | x3 | x3 | x3 | x3 | x3 |[K:treble] x3 | %404
 x3 | x3 | x3 | x3 | x2[K:bass] x | x3 | x3 | x2 C, | x3 | x3 | x3 |[K:treble] x3 | x3 | x3 | %418
[K:bass] x3 | z !wedge!C,!wedge!D, | z !wedge!E,!wedge!F, | z !wedge!G,!wedge!_A, | x3 | x3 | x3 | %425
 x3 | x3 | x3 | x3 |[K:treble] x3 | x3 |[K:bass] x3 | x3 | x3 | x3 | x3 | x3 | C,2 z |][M:2/2] x8 | %439
 x8 | x8 | x8 | x8 | x8 | x8 | x8 | x8 | x8 | x8 | x8 | x8 | x8 | x8 | x8 | x8 | x8 | x8 | x8 | %458
 x8 | x8 | x8 | x8 | x8 | x8 | x8 | x8 | x8 | x8 | x8 | x8 | x8 | x8 | x8 | x6[K:treble] x2 | x8 | %475
 x8 | x8 | x8 | x8 | x8 | x8 | x6[K:bass] x2 | x8 | x8 | x8 | x8 | x8 | x8 | x8 | x8 | x8 | x8 | %492
 x8 | x8 | x8 |[K:treble] x8 | x8 | x8 | x8 |[K:bass] x8 | x8 | x8 | x8 | x8 | x8 | x8 | x8 | x8 | %508
 x8 | x8 | x8 | x8 | x8 | x8 | x8 | x8 | x8 | x8 | x8 | x8 | x8 | x8 | x8 | x8 | x8 | x8 | %526
 x6[K:treble] x2 | x8 | x8 | x8 | x8 | x8 | x8 | x8 |[K:bass] x8 | x8 | x8 | x8 | x8 | x8 | x8 | %541
 x8 | x8 | x8 | x8 | x8 | x8 | x8 | x8 | x8 | x8 | x8 | x8 | x8 | x8 | x8 | x6[K:treble] x2 | x8 | %558
 x8 | x8 |[K:bass] x8 | x8 | x8 | x8 | x8 | x8 | x8 | x8 | x8 | x8 | x8 | x8 | x8 | x8 | x8 | x8 | %576
 x8 | x8 | x8 | x8 | x8 | x8 | x8 | x8 | x8 | x8 | x8 | x8 | x8 | x8 |[K:treble] x8 | x8 | x8 | %593
 x8 | x8 | x8 | x2[K:bass] x6 | x8 | x8 | x8 | x8 | x8 | x8 | x8 | x8 | x8 | x8 | x8 |] %608
V:9
 x3 | x3 | x3 | x3 | x3 | x3 | x3 | x3 | x3 | x3 | x3 | x3 | x3 | x3 | x3 | x3 |[K:treble] x3 | %17
 x3 | x3 | x3 | x3 |[K:bass] x3 | x3 | x3 | x3 | x3 | x3 | x3 | x3 | x3 | x3 | x3 | x3 | x3 | x3 | %35
[K:treble] x3 | x3 | x3 | x3 | x3 |[K:bass] x3 | x3 | x3 | x3 | x3 | x3 | x3 | x3 | x3 | x3 | x3 | %51
[K:treble] x3 | x3 | x3 | x3 | x3 | x3 | x3 | x3 | x3 | x3 | x3 | x3 | x3 | x3 | x3 | x3 | x3 | %68
 x3 | x3 | x3 | x3 | x3 | x3 | x3 | x3 | x3 | x3 | x3 | x3 |[K:bass] x3 | x3 | x3 | x3 | x3 | x3 | %86
 x3 | x3 | x3 | x3 | x3 | x3 | x3 | x3 | x3 | x3 | x3 |[K:treble] x3 | x3 |[K:bass] x3 | x3 | x3 | %102
 x3 | x3 | x3 | x3 | x3 | x3 | x3 | x3 | x3 | x3 | x3 | x3 | x3 | x3 | x3 | x3 | x3 | x3 | x3 | %121
 x3 | x3 | x3 | x3 | x3 | x3 | x3 | x3 | x3 | x3 | x3 | x3 | x3 | x3 | x3 | x3 | x3 | x3 | x3 | %140
 x3 | x3 | x3 | x3 | x3 | x3 | x3 | x3 | x3 | x3 | x3 | x3 | x3 | x3 | x3 | x3 | x3 | x3 | x3 | %159
 x3 | x3 | x3 | x3 | x3 | x3 | x3 | x3 | x3 | x3 | x3 | x3 | x3 | x3 | x3 | x3 | x3 | x3 | x3 | %178
 x3 | x3 | x3 | x3 | x3 | x3 | x3 | x3 | x3 | x3 | x3 | x3 | x3 | x3 | x3 | x3 | x3 | x3 | x3 | %197
 x3 | x3 | x3 | x3 | x3 | x3 | x3 | x3 | x3 | x3 | x3 | x3 | x3 | x3 | x3 | x3 | x3 | x3 | x3 | %216
 x3 | x3 | x3 | x3 |[K:treble] x3 | x3 | x3 | x3 | x3 | x3 | x3 | x3 | x3 | x3 | x3 |[K:bass] x3 | %232
 x3 | x3 | x3 | x3 | x3 | x3 | x3 | x3 | x3 | x3 | x3 | x3 | x3 | x3 | x3 | x3 | x3 | x3 | x3 | %251
 x3 | x3 | x3 | x3 | x3 | x3 | x3 | x3 | x3 | x3 | x3 | x3 | x3 | x3 | x3 | x3 | x3 | x3 | x3 | %270
 x3 | x3 | x[K:treble] x2 | x3 | x3 | x3 | x3 | x2[K:bass] x | x3 | x3 | x3 | x3 | x3 | x3 | x3 | %285
 x3 | x3 | x3 | x3 | x3 | x3 | x3 | x3 | x3 | x3 | x3 | x3 | x3 | x3 | x3 | x3 | x3 | x3 | x3 | %304
 x3 | x3 | x3 |[K:treble] x3 | x3 | x3 | x3 | x3 | x3 |[K:bass] x3 | x3 | x3 | x3 | x3 | x3 | x3 | %320
 x3 | x3 | x3 |[K:treble] x3 | x3 |[K:bass] x3 | x3 | x3 | x3 | x3 | x3 |[K:treble] x3 | x3 | x3 | %334
 x3 | x3 | x3 | x3 | x3 | x3 | x3 | x3 | x3 | x3 | x3 | x3 | x3 | x3 | x3 | x3 | x3 | x3 | x3 | %353
[K:bass] x3 | x3 | x3 | x3 | x3 | x3 | x3 | x3 | x3 | x3 | x3 | x3 | x3 | x3 | x3 | x3 | x3 | x3 | %371
 x3 | x3 | x3 | x3 | x3 | x3 | x3 | x3 | x3 | x3 | x3 | x3 | x3 |[K:treble] x3 | x3 | x3 | x3 | %388
 x3 | x3 |[K:bass] x3 | x3 | x3 | x3 | x3 | x3 | x3 | x3 | x3 | x3 | x3 | x3 | x3 |[K:treble] x3 | %404
 x3 | x3 | x3 | x3 | x2[K:bass] x | x3 | x3 | C,/G,,/E,,/C,,/G,,/E,,/ | x3 | x3 | x3 | %415
[K:treble] x3 | x3 | x3 |[K:bass] x3 | x3 | x3 | x3 | x3 | x3 | x3 | x3 | x3 | x3 | x3 | %429
[K:treble] x3 | x3 |[K:bass] x3 | x3 | x3 | x3 | x3 | x3 | x3 |][M:2/2] x8 | x8 | x8 | x8 | x8 | %443
 x8 | x8 | x8 | x8 | x8 | x8 | x8 | x8 | x8 | x8 | x8 | x8 | x8 | x8 | x8 | x8 | x8 | x8 | x8 | %462
 x8 | x8 | x8 | x8 | x8 | x8 | x8 | x8 | x8 | x8 | x8 | x6[K:treble] x2 | x8 | x8 | x8 | x8 | x8 | %479
 x8 | x8 | x6[K:bass] x2 | x8 | x8 | x8 | x8 | x8 | x8 | x8 | x8 | x8 | x8 | x8 | x8 | x8 | %495
[K:treble] x8 | x8 | x8 | x8 |[K:bass] x8 | x8 | x8 | x8 | x8 | x8 | x8 | x8 | x8 | x8 | x8 | x8 | %511
 x8 | x8 | x8 | x8 | x8 | x8 | x8 | x8 | x8 | x8 | x8 | x8 | x8 | x8 | x8 | x6[K:treble] x2 | x8 | %528
 x8 | x8 | x8 | x8 | x8 | x8 |[K:bass] x8 | x8 | x8 | x8 | x8 | x8 | x8 | x8 | x8 | x8 | x8 | x8 | %546
 x8 | x8 | x8 | x8 | x8 | x8 | x8 | x8 | x8 | x8 | x6[K:treble] x2 | x8 | x8 | x8 |[K:bass] x8 | %561
 x8 | x8 | x8 | x8 | x8 | x8 | x8 | x8 | x8 | x8 | x8 | x8 | x8 | x8 | x8 | x8 | x8 | x8 | x8 | %580
 x8 | x8 | x8 | x8 | x8 | x8 | x8 | x8 | x8 | x8 |[K:treble] x8 | x8 | x8 | x8 | x8 | x8 | %596
 x2[K:bass] x6 | x8 | x8 | x8 | x8 | x8 | x8 | x8 | x8 | x8 | x8 | x8 |] %608

